X:1
T:The Lovely Girl From Limerick
M:C|
L:1/8
C:Kyle Borley 2016
Z: Contributed 2016-04-16 13:34:31 by Kyle kborley@gmail.com
K:Am
AG|EAAG A2Bd|e2dB dGBd|1 e2dB dGBd|eage dBAG:|2 egdB AdBG|A2GA BGGE|
D2DE GFGA|Bded g2ga|1 bgag egde|gedB ABGE:|2 bgag egde|gedB A2||

